Adwaita++/status/24/dropboxstatus-logo.svg

<svg height="24" width="24" xmlns="http://www.w3.org/2000/svg">
  <path d="m7.1164288 2.9657151-6.1044641 3.6626784 4.8835713 3.6436325-4.895536 3.671957 6.1164288 3.672446 4.8835712-3.662679-6.104464-3.662678 6.104464-3.6626785 6.104464 3.6817245-6.104464 3.643632 4.883571 3.662679 6.116429-3.691248-4.89578-3.63826 4.883571-3.6626785-6.104464-3.6626784-4.883571 3.6436325-4.8835714-3.6436325zm4.8835712 12.2089279-4.8835712 3.662679-1.2208928-.73206v.73206l6.104464 3.662678 6.104464-3.662678v-.736834l-1.220893.736834z" fill="#fff" opacity=".99"/>
</svg>

<svg xmlns="http://www.w3.org/2000/svg" width="24" height="24" version="1.1">
 <defs>
  <style type="text/css">
   .ColorScheme-Text { color:#5c616c; } .ColorScheme-Highlight { color:#5294e2; } .ColorScheme-ButtonBackground { color:#d3dae3; }
  </style>
 </defs>
 <path class="ColorScheme-ButtonBackground" d="M 7.1164288,2.9657151 1.0119647,6.6283935 5.895536,10.272026 1,13.943983 7.1164288,17.616429 12,13.95375 5.895536,10.291072 12,6.6283935 18.104464,10.310118 12,13.95375 16.883571,17.616429 23,13.925181 18.10422,10.286921 22.987791,6.6242425 16.883327,2.9615641 11.999756,6.6051966 7.1161846,2.9615641 Z M 12,15.174643 7.1164288,18.837322 5.895536,18.105262 v 0.73206 L 12,22.5 18.104464,18.837322 v -0.736834 l -1.220893,0.736834 z" style="fill:#ffffff;opacity:.98999999"/>
</svg>
